X: 29121
T: Nellie's
R: jig
M: 6/8
K: Gmajor
g2 d BdB|GDG BAG|AcA FEF|DFA def|
g2 d BdB|GDG BAG|ABc def|g2 g g2:|
G2 g gfg|ded BAG|A2 a a2 g|fed cBA|
G2 g gfg|ded BAG|ABc def|g2 g g2:|

